; generated by PrusaSlicer 2.2.0+linux-x64 on 2020-09-17 at 13:51:37 UTC

; 

; external perimeters extrusion width = 0.60mm
; perimeters extrusion width = 0.50mm
; infill extrusion width = 0.50mm
; solid infill extrusion width = 0.50mm
; top infill extrusion width = 0.45mm
; first layer extrusion width = 0.42mm

M73 P0 R153
M73 Q0 S153
M201 X1000 Y1000 Z200 E5000 ; sets maximum accelerations, mm/sec^2
M203 X200 Y200 Z12 E120 ; sets maximum feedrates, mm/sec
M204 P1250 R1250 T1250 ; sets acceleration (P, T) and retract acceleration (R), mm/sec^2
M205 X8.00 Y8.00 Z0.40 E4.50 ; sets the jerk limits, mm/sec
M205 S0 T0 ; sets the minimum extruding and travel feed rate, mm/sec
M107
M862.3 P "MK3S" ; printer model check
M862.1 P0.4 ; nozzle diameter check
M115 U3.9.0 ; tell printer latest fw version
G90 ; use absolute coordinates
M83 ; extruder relative mode
M104 S245 ; set extruder temp
M140 S85 ; set bed temp
M190 S85 ; wait for bed temp
M109 S245 ; wait for extruder temp
G28 W ; home all without mesh bed level
G80 ; mesh bed leveling
G1 Y-3.0 F1000.0 ; go outside print area
G92 E0.0
G1 X60.0 E9.0 F1000.0 ; intro line
M73 Q0 S153
M73 P0 R153
G1 X100.0 E12.5 F1000.0 ; intro line
G92 E0.0
M221 S95

; Don't change E values below. Excessive value can damage the printer.

G21 ; set units to millimeters
G90 ; use absolute coordinates
M83 ; use relative distances for extrusion
M900 K0.12 ; Filament gcode LA 1.5
M900 K45 ; Filament gcode LA 1.0
;BEFORE_LAYER_CHANGE
G92 E0.0
;0.2


G1 E-1.40000 F2100.00000
G1 Z0.200 F10800.000
;AFTER_LAYER_CHANGE
;0.2
G1 Z0.400
G1 X98.254 Y64.999
G1 Z0.200
G1 E1.40000 F2100.00000
M204 S1000
G1 F1200.000
G1 X99.213 Y64.270 E0.03776
G1 X100.109 Y63.887 E0.03056
G1 X101.253 Y63.705 E0.03631
G1 X147.367 Y63.702 E1.44588
G1 X148.101 Y63.765 E0.02308
G1 X148.884 Y63.978 E0.02546
G1 X149.813 Y64.455 E0.03274
G1 X150.437 Y64.963 E0.02522
G1 X150.922 Y65.532 E0.02344
G1 X151.326 Y66.226 E0.02519
G1 X151.653 Y67.221 E0.03284
G1 X151.738 Y67.969 E0.02359
G1 X151.740 Y143.594 E2.37119
G1 X151.569 Y144.782 E0.03762
G1 X151.209 Y145.666 E0.02994
G1 X150.474 Y146.658 E0.03869
G1 X149.507 Y147.392 E0.03807
G1 X148.606 Y147.775 E0.03068
G1 X147.443 Y147.955 E0.03691
G1 X101.337 Y147.956 E1.44564
G1 X100.150 Y147.783 E0.03762
G1 X99.272 Y147.423 E0.02972
G1 X98.279 Y146.685 E0.03879
G1 X97.549 Y145.720 E0.03796
G1 X97.166 Y144.816 E0.03076
G1 X96.987 Y143.633 E0.03752
G1 X96.986 Y68.064 E2.36941
G1 X97.159 Y66.871 E0.03779
G1 X97.518 Y65.992 E0.02977
G1 X98.218 Y65.047 E0.03690
G1 F8640.000
G1 X99.213 Y64.270 E-0.29139
G1 X100.109 Y63.887 E-0.22505
G1 X101.253 Y63.705 E-0.26741
G1 X103.618 Y63.705 E-0.54615
G1 E-0.07000 F2100.00000
G1 Z0.400 F10800.000
G1 X101.293 Y68.009
G1 Z0.200
G1 E1.40000 F2100.00000
G1 F1200.000
G1 X147.434 Y68.009 E1.44670
G1 X147.434 Y143.649 E2.37165
G1 X101.293 Y143.649 E1.44670
G1 X101.288 Y68.069 E2.36978
G1 X100.959 Y67.873 F10800.000
G1 F1200.000
G1 X101.042 Y67.758 E0.00445
G1 X101.157 Y67.675 E0.00445
G1 X101.292 Y67.631 E0.00445
G1 X101.424 Y67.620 E0.00414
G1 X147.304 Y67.621 E1.43853
G1 X147.434 Y67.631 E0.00411
G1 X147.570 Y67.675 E0.00446
G1 X147.731 Y67.812 E0.00664
G1 X147.795 Y67.939 E0.00446
G1 X147.822 Y68.140 E0.00635
G1 X147.822 Y143.519 E2.36346
G1 X147.812 Y143.650 E0.00414
G1 X147.768 Y143.785 E0.00446
G1 X147.630 Y143.947 E0.00664
G1 X147.504 Y144.011 E0.00446
G1 X147.303 Y144.038 E0.00635
G1 X101.424 Y144.038 E1.43851
G1 X101.292 Y144.028 E0.00414
G1 X101.157 Y143.984 E0.00445
G1 X100.996 Y143.846 E0.00665
G1 X100.932 Y143.720 E0.00445
G1 X100.905 Y143.519 E0.00635
G1 X100.905 Y68.140 E2.36345
G1 X100.936 Y67.929 E0.00670
G1 X100.572 Y67.822 F10800.000
G1 F1200.000
G1 X100.690 Y67.590 E0.00816
G1 X100.874 Y67.406 E0.00817
G1 X101.106 Y67.288 E0.00816
G1 X101.409 Y67.243 E0.00960
G1 X147.319 Y67.243 E1.43946
G1 X147.494 Y67.257 E0.00551
G1 X147.741 Y67.338 E0.00817
G1 X147.952 Y67.491 E0.00816
G1 X148.037 Y67.590 E0.00410
G1 X148.155 Y67.822 E0.00817
G1 X148.199 Y68.125 E0.00960
G1 X148.199 Y143.534 E2.36438
G1 X148.185 Y143.709 E0.00553
G1 X148.105 Y143.957 E0.00817
G1 X148.037 Y144.068 E0.00409
G1 X147.853 Y144.253 E0.00816
G1 X147.621 Y144.371 E0.00817
G1 X147.318 Y144.415 E0.00959
G1 X101.409 Y144.415 E1.43943
G1 X101.233 Y144.401 E0.00553
G1 X100.986 Y144.321 E0.00816
G1 X100.874 Y144.253 E0.00410
G1 X100.690 Y144.068 E0.00816
G1 X100.572 Y143.836 E0.00816
G1 X100.528 Y143.534 E0.00960
G1 X100.528 Y68.125 E2.36438
G1 X100.558 Y67.880 E0.00773
G1 X100.212 Y67.705 F10800.000
G1 F1200.000
G1 X100.285 Y67.530 E0.00596
G1 X100.384 Y67.368 E0.00595
G1 X100.507 Y67.223 E0.00596
G1 X100.652 Y67.100 E0.00596
G1 X100.814 Y67.001 E0.00595
G1 X100.989 Y66.928 E0.00596
G1 X101.174 Y66.884 E0.00596
G1 X101.394 Y66.866 E0.00693
G1 X147.333 Y66.866 E1.44039
G1 X147.553 Y66.884 E0.00690
G1 X147.737 Y66.928 E0.00595
G1 X147.913 Y67.001 E0.00596
G1 X148.075 Y67.100 E0.00595
G1 X148.219 Y67.223 E0.00595
G1 X148.343 Y67.368 E0.00596
G1 X148.442 Y67.530 E0.00596
G1 X148.515 Y67.705 E0.00596
G1 X148.559 Y67.890 E0.00595
G1 X148.576 Y68.110 E0.00693
G1 X148.576 Y143.548 E2.36531
M73 Q0 S152
M73 P0 R152
G1 X148.559 Y143.769 E0.00693
G1 X148.515 Y143.953 E0.00595
G1 X148.442 Y144.129 E0.00596
G1 X148.343 Y144.291 E0.00596
G1 X148.219 Y144.435 E0.00596
G1 X148.075 Y144.559 E0.00596
G1 X147.913 Y144.658 E0.00596
G1 X147.737 Y144.730 E0.00596
G1 X147.553 Y144.775 E0.00595
G1 X147.333 Y144.792 E0.00693
G1 X101.394 Y144.792 E1.44036
G1 X101.174 Y144.775 E0.00693
G1 X100.989 Y144.730 E0.00595
G1 X100.814 Y144.658 E0.00596
G1 X100.652 Y144.559 E0.00596
G1 X100.507 Y144.435 E0.00596
G1 X100.384 Y144.291 E0.00595
G1 X100.285 Y144.129 E0.00595
G1 X100.212 Y143.953 E0.00596
G1 X100.168 Y143.769 E0.00595
G1 X100.151 Y143.548 E0.00693
G1 X100.151 Y68.110 E2.36531
G1 X100.168 Y67.890 E0.00693
G1 X100.198 Y67.764 E0.00407
G1 X99.832 Y67.675 F10800.000
G1 F1200.000
G1 X99.948 Y67.358 E0.01060
G1 X100.078 Y67.145 E0.00782
G1 X100.240 Y66.956 E0.00782
G1 X100.430 Y66.794 E0.00782
G1 X100.642 Y66.664 E0.00782
G1 X100.872 Y66.568 E0.00782
G1 X101.115 Y66.510 E0.00782
G1 X101.380 Y66.489 E0.00832
G1 X147.348 Y66.489 E1.44132
G1 X147.612 Y66.510 E0.00830
G1 X147.854 Y66.568 E0.00782
G1 X148.085 Y66.664 E0.00782
G1 X148.297 Y66.794 E0.00782
G1 X148.487 Y66.956 E0.00782
G1 X148.649 Y67.145 E0.00782
G1 X148.779 Y67.358 E0.00782
G1 X148.874 Y67.588 E0.00782
G1 X148.933 Y67.831 E0.00782
G1 X148.953 Y68.095 E0.00832
G1 X148.953 Y143.563 E2.36624
G1 X148.933 Y143.828 E0.00832
G1 X148.874 Y144.070 E0.00781
G1 X148.779 Y144.301 E0.00782
G1 X148.649 Y144.513 E0.00782
G1 X148.487 Y144.703 E0.00782
G1 X148.297 Y144.865 E0.00782
G1 X148.085 Y144.995 E0.00782
G1 X147.854 Y145.090 E0.00782
G1 X147.612 Y145.148 E0.00781
G1 X147.347 Y145.169 E0.00832
G1 X101.380 Y145.169 E1.44129
G1 X101.115 Y145.148 E0.00832
G1 X100.873 Y145.090 E0.00782
G1 X100.642 Y144.995 E0.00782
G1 X100.430 Y144.865 E0.00782
G1 X100.240 Y144.703 E0.00782
G1 X100.078 Y144.513 E0.00782
G1 X99.948 Y144.301 E0.00782
G1 X99.852 Y144.070 E0.00782
G1 X99.794 Y143.828 E0.00782
G1 X99.773 Y143.563 E0.00832
G1 X99.773 Y68.095 E2.36624
G1 X99.818 Y67.734 E0.01142
G1 X100.156 Y67.579 F10800.000
G1 F8640.000
G1 X99.948 Y67.358 E-0.09186
G1 X100.078 Y67.145 E-0.05756
G1 X100.240 Y66.956 E-0.05757
G1 X100.430 Y66.794 E-0.05757
G1 X100.642 Y66.664 E-0.05756
G1 X100.872 Y66.568 E-0.05756
G1 X101.115 Y66.510 E-0.05756
G1 X101.380 Y66.489 E-0.06130
G1 X104.980 Y66.489 E-0.83146
G1 E-0.07000 F2100.00000
G1 Z0.400 F10800.000
G1 X101.406 Y142.772
G1 Z0.200
G1 E1.40000 F2100.00000
G1 F1200.000
G1 X102.001 Y143.367 E0.02647
G1 X102.536 Y143.367 E0.01682
G1 X101.576 Y142.406 E0.04271
G1 X101.576 Y141.872 E0.01682
G1 X103.071 Y143.367 E0.06650
G1 X103.606 Y143.367 E0.01682
G1 X101.576 Y141.337 E0.09030
G1 X101.576 Y140.802 E0.01682
G1 X104.141 Y143.367 E0.11409
G1 X104.676 Y143.367 E0.01682
G1 X101.576 Y140.267 E0.13788
G1 X101.576 Y139.732 E0.01682
G1 X105.211 Y143.367 E0.16167
G1 X105.746 Y143.367 E0.01682
G1 X101.576 Y139.197 E0.18547
G1 X101.576 Y138.662 E0.01682
G1 X106.281 Y143.367 E0.20926
G1 X106.816 Y143.367 E0.01682
G1 X101.576 Y138.127 E0.23305
G1 X101.576 Y137.592 E0.01682
G1 X107.351 Y143.367 E0.25684
G1 X107.885 Y143.367 E0.01682
G1 X101.576 Y137.057 E0.28064
G1 X101.576 Y136.522 E0.01682
G1 X108.420 Y143.367 E0.30443
G1 X108.955 Y143.367 E0.01682
G1 X101.576 Y135.987 E0.32822
G1 X101.576 Y135.452 E0.01682
G1 X109.490 Y143.367 E0.35201
G1 X110.025 Y143.367 E0.01682
G1 X101.576 Y134.918 E0.37581
G1 X101.576 Y134.383 E0.01682
G1 X110.560 Y143.367 E0.39960
G1 X111.095 Y143.367 E0.01682
G1 X101.576 Y133.848 E0.42339
G1 X101.576 Y133.313 E0.01682
G1 X111.630 Y143.367 E0.44718
G1 X112.165 Y143.367 E0.01682
G1 X101.576 Y132.778 E0.47098
G1 X101.576 Y132.243 E0.01682
G1 X112.700 Y143.367 E0.49477
G1 X113.235 Y143.367 E0.01682
G1 X101.576 Y131.708 E0.51856
G1 X101.576 Y131.173 E0.01682
G1 X113.770 Y143.367 E0.54235
G1 X114.304 Y143.367 E0.01682
G1 X101.576 Y130.638 E0.56615
G1 X101.576 Y130.103 E0.01682
G1 X114.839 Y143.367 E0.58994
G1 X115.374 Y143.367 E0.01682
G1 X101.576 Y129.568 E0.61373
G1 X101.576 Y129.033 E0.01682
G1 X115.909 Y143.367 E0.63752
G1 X116.444 Y143.367 E0.01682
G1 X101.576 Y128.499 E0.66132
G1 X101.576 Y127.964 E0.01682
G1 X116.979 Y143.367 E0.68511
G1 X117.514 Y143.367 E0.01682
G1 X101.576 Y127.429 E0.70890
G1 X101.576 Y126.894 E0.01682
G1 X118.049 Y143.367 E0.73269
G1 X118.584 Y143.367 E0.01682
G1 X101.576 Y126.359 E0.75649
G1 X101.576 Y125.824 E0.01682
G1 X119.119 Y143.367 E0.78028
G1 X119.654 Y143.367 E0.01682
G1 X101.576 Y125.289 E0.80407
G1 X101.576 Y124.754 E0.01682
G1 X120.189 Y143.367 E0.82786
G1 X120.723 Y143.367 E0.01682
G1 X101.576 Y124.219 E0.85166
G1 X101.576 Y123.684 E0.01682
G1 X121.258 Y143.367 E0.87545
G1 X121.793 Y143.367 E0.01682
G1 X101.576 Y123.149 E0.89924
G1 X101.576 Y122.614 E0.01682
G1 X122.328 Y143.367 E0.92303
G1 X122.863 Y143.367 E0.01682
G1 X101.576 Y122.080 E0.94683
G1 X101.576 Y121.545 E0.01682
G1 X123.398 Y143.367 E0.97062
G1 X123.933 Y143.367 E0.01682
G1 X101.576 Y121.010 E0.99441
G1 X101.576 Y120.475 E0.01682
G1 X124.468 Y143.367 E1.01820
G1 X125.003 Y143.367 E0.01682
G1 X101.576 Y119.940 E1.04200
G1 X101.576 Y119.405 E0.01682
G1 X125.538 Y143.367 E1.06579
M73 Q1 S151
M73 P1 R151
G1 X126.073 Y143.367 E0.01682
G1 X101.576 Y118.870 E1.08958
G1 X101.576 Y118.335 E0.01682
G1 X126.608 Y143.367 E1.11337
G1 X127.143 Y143.367 E0.01682
G1 X101.576 Y117.800 E1.13717
G1 X101.576 Y117.265 E0.01682
G1 X127.677 Y143.367 E1.16096
G1 X128.212 Y143.367 E0.01682
G1 X101.576 Y116.730 E1.18475
G1 X101.576 Y116.195 E0.01682
G1 X128.747 Y143.367 E1.20854
G1 X129.282 Y143.367 E0.01682
G1 X101.576 Y115.660 E1.23234
G1 X101.576 Y115.126 E0.01682
G1 X129.817 Y143.367 E1.25613
G1 X130.352 Y143.367 E0.01682
G1 X101.576 Y114.591 E1.27992
G1 X101.576 Y114.056 E0.01682
G1 X130.887 Y143.367 E1.30371
G1 X131.422 Y143.367 E0.01682
G1 X101.576 Y113.521 E1.32751
G1 X101.576 Y112.986 E0.01682
G1 X131.957 Y143.367 E1.35130
G1 X132.492 Y143.367 E0.01682
G1 X101.576 Y112.451 E1.37509
G1 X101.576 Y111.916 E0.01682
G1 X133.027 Y143.367 E1.39888
G1 X133.562 Y143.367 E0.01682
G1 X101.576 Y111.381 E1.42268
G1 X101.576 Y110.846 E0.01682
G1 X134.096 Y143.367 E1.44647
G1 X134.631 Y143.367 E0.01682
G1 X101.576 Y110.311 E1.47026
G1 X101.576 Y109.776 E0.01682
G1 X135.166 Y143.367 E1.49405
G1 X135.701 Y143.367 E0.01682
G1 X101.576 Y109.241 E1.51785
G1 X101.576 Y108.707 E0.01682
G1 X136.236 Y143.367 E1.54164
G1 X136.771 Y143.367 E0.01682
G1 X101.576 Y108.172 E1.56543
G1 X101.576 Y107.637 E0.01682
G1 X137.306 Y143.367 E1.58922
G1 X137.841 Y143.367 E0.01682
G1 X101.576 Y107.102 E1.61302
G1 X101.576 Y106.567 E0.01682
G1 X138.376 Y143.367 E1.63681
G1 X138.911 Y143.367 E0.01682
G1 X101.576 Y106.032 E1.66060
G1 X101.576 Y105.497 E0.01682
G1 X139.446 Y143.367 E1.68439
G1 X139.981 Y143.367 E0.01682
G1 X101.576 Y104.962 E1.70819
M73 Q2 S150
M73 P2 R150
G1 X101.576 Y104.427 E0.01682
G1 X140.516 Y143.367 E1.73198
G1 X141.050 Y143.367 E0.01682
G1 X101.576 Y103.892 E1.75577
G1 X101.576 Y103.357 E0.01682
G1 X141.585 Y143.367 E1.77956
G1 X142.120 Y143.367 E0.01682
G1 X101.576 Y102.822 E1.80336
G1 X101.576 Y102.287 E0.01682
G1 X142.655 Y143.367 E1.82715
G1 X143.190 Y143.367 E0.01682
G1 X101.576 Y101.753 E1.85094
G1 X101.576 Y101.218 E0.01682
G1 X143.725 Y143.367 E1.87473
G1 X144.260 Y143.367 E0.01682
G1 X101.576 Y100.683 E1.89853
G1 X101.576 Y100.148 E0.01682
G1 X144.795 Y143.367 E1.92232
G1 X145.330 Y143.367 E0.01682
G1 X101.576 Y99.613 E1.94611
G1 X101.576 Y99.078 E0.01682
G1 X145.865 Y143.367 E1.96990
G1 X146.400 Y143.367 E0.01682
G1 X101.576 Y98.543 E1.99370
G1 X101.576 Y98.008 E0.01682
G1 X146.935 Y143.367 E2.01749
G1 X147.151 Y143.367 E0.00681
G1 X147.151 Y143.048 E0.01002
G1 X101.576 Y97.473 E2.02712
G1 X101.576 Y96.938 E0.01682
G1 X147.151 Y142.513 E2.02712
G1 X147.151 Y141.979 E0.01682
G1 X101.576 Y96.403 E2.02712
G1 X101.576 Y95.868 E0.01682
G1 X147.151 Y141.444 E2.02713
G1 X147.151 Y140.909 E0.01682
G1 X101.576 Y95.334 E2.02713
G1 X101.576 Y94.799 E0.01682
G1 X147.151 Y140.374 E2.02713
G1 X147.151 Y139.839 E0.01682
G1 X101.576 Y94.264 E2.02714
M73 Q2 S149
M73 P2 R149
G1 X101.576 Y93.729 E0.01682
G1 X147.152 Y139.304 E2.02714
G1 X147.152 Y138.769 E0.01682
G1 X101.576 Y93.194 E2.02714
G1 X101.576 Y92.659 E0.01682
G1 X147.152 Y138.235 E2.02715
G1 X147.152 Y137.700 E0.01682
G1 X101.576 Y92.124 E2.02715
G1 X101.576 Y91.589 E0.01682
G1 X147.152 Y137.165 E2.02716
G1 X147.152 Y136.630 E0.01682
G1 X101.576 Y91.054 E2.02716
G1 X101.576 Y90.519 E0.01682
G1 X147.152 Y136.095 E2.02716
G1 X147.152 Y135.560 E0.01682
G1 X101.576 Y89.984 E2.02717
G1 X101.576 Y89.449 E0.01682
G1 X147.152 Y135.026 E2.02717
G1 X147.152 Y134.491 E0.01682
G1 X101.576 Y88.915 E2.02717
G1 X101.576 Y88.380 E0.01682
G1 X147.152 Y133.956 E2.02718
G1 X147.152 Y133.421 E0.01682
G1 X101.576 Y87.845 E2.02718
G1 X101.576 Y87.310 E0.01682
G1 X147.153 Y132.886 E2.02718
G1 X147.153 Y132.351 E0.01682
G1 X101.576 Y86.775 E2.02719
G1 X101.576 Y86.240 E0.01682
G1 X147.153 Y131.817 E2.02719
G1 X147.153 Y131.282 E0.01682
G1 X101.576 Y85.705 E2.02720
G1 X101.576 Y85.170 E0.01682
G1 X147.153 Y130.747 E2.02720
G1 X147.153 Y130.212 E0.01682
G1 X101.576 Y84.635 E2.02720
G1 X101.576 Y84.100 E0.01682
G1 X147.153 Y129.677 E2.02721
M73 Q3 S148
M73 P3 R148
G1 X147.153 Y129.142 E0.01682
G1 X101.576 Y83.565 E2.02721
G1 X101.576 Y83.030 E0.01682
G1 X147.153 Y128.608 E2.02721
G1 X147.153 Y128.073 E0.01682
G1 X101.576 Y82.495 E2.02722
G1 X101.576 Y81.961 E0.01682
G1 X147.153 Y127.538 E2.02722
G1 X147.153 Y127.003 E0.01682
G1 X101.576 Y81.426 E2.02722
G1 X101.576 Y80.891 E0.01682
G1 X147.153 Y126.468 E2.02723
G1 X147.154 Y125.933 E0.01682
G1 X101.576 Y80.356 E2.02723
G1 X101.576 Y79.821 E0.01682
G1 X147.154 Y125.399 E2.02723
G1 X147.154 Y124.864 E0.01682
G1 X101.576 Y79.286 E2.02724
G1 X101.576 Y78.751 E0.01682
G1 X147.154 Y124.329 E2.02724
G1 X147.154 Y123.794 E0.01682
G1 X101.576 Y78.216 E2.02725
G1 X101.576 Y77.681 E0.01682
G1 X147.154 Y123.259 E2.02725
G1 X147.154 Y122.724 E0.01682
G1 X101.576 Y77.146 E2.02725
G1 X101.576 Y76.611 E0.01682
G1 X147.154 Y122.190 E2.02726
G1 X147.154 Y121.655 E0.01682
G1 X101.576 Y76.076 E2.02726
G1 X101.576 Y75.542 E0.01682
G1 X147.154 Y121.120 E2.02726
G1 X147.154 Y120.585 E0.01682
G1 X101.576 Y75.007 E2.02727
G1 X101.576 Y74.472 E0.01682
G1 X147.154 Y120.050 E2.02727
G1 X147.155 Y119.515 E0.01682
G1 X101.576 Y73.937 E2.02727
M73 Q4 S147
M73 P4 R146
G1 X101.576 Y73.402 E0.01682
G1 X147.155 Y118.980 E2.02728
G1 X147.155 Y118.446 E0.01682
G1 X101.576 Y72.867 E2.02728
G1 X101.576 Y72.332 E0.01682
G1 X147.155 Y117.911 E2.02729
G1 X147.155 Y117.376 E0.01682
G1 X101.576 Y71.797 E2.02729
G1 X101.576 Y71.262 E0.01682
G1 X147.155 Y116.841 E2.02729
G1 X147.155 Y116.306 E0.01682
G1 X101.576 Y70.727 E2.02730
G1 X101.576 Y70.192 E0.01682
G1 X147.155 Y115.771 E2.02730
G1 X147.155 Y115.237 E0.01682
G1 X101.576 Y69.657 E2.02730
G1 X101.576 Y69.123 E0.01682
G1 X147.155 Y114.702 E2.02731
