; generated by PrusaSlicer 2.2.0+linux-x64 on 2020-09-17 at 10:45:28 UTC

; 

; external perimeters extrusion width = 0.60mm
; perimeters extrusion width = 0.50mm
; infill extrusion width = 0.50mm
; solid infill extrusion width = 0.50mm
; top infill extrusion width = 0.45mm
; first layer extrusion width = 0.42mm

M73 P0 R152
M73 Q0 S153
M201 X1000 Y1000 Z200 E5000 ; sets maximum accelerations, mm/sec^2
M203 X200 Y200 Z12 E120 ; sets maximum feedrates, mm/sec
M204 P1250 R1250 T1250 ; sets acceleration (P, T) and retract acceleration (R), mm/sec^2
M205 X8.00 Y8.00 Z0.40 E4.50 ; sets the jerk limits, mm/sec
M205 S0 T0 ; sets the minimum extruding and travel feed rate, mm/sec
M107
M862.3 P "MK3S" ; printer model check
M862.1 P0.4 ; nozzle diameter check
M115 U3.9.0 ; tell printer latest fw version
G90 ; use absolute coordinates
M83 ; extruder relative mode
M104 S245 ; set extruder temp
M140 S85 ; set bed temp
M190 S85 ; wait for bed temp
M109 S245 ; wait for extruder temp
G28 W ; home all without mesh bed level
G80 ; mesh bed leveling
G1 Y-3.0 F1000.0 ; go outside print area
G92 E0.0
G1 X60.0 E9.0 F1000.0 ; intro line
M73 Q0 S153
M73 P0 R152
G1 X100.0 E12.5 F1000.0 ; intro line
G92 E0.0
M221 S95

; Don't change E values below. Excessive value can damage the printer.

G21 ; set units to millimeters
G90 ; use absolute coordinates
M83 ; use relative distances for extrusion
M900 K0.12 ; Filament gcode LA 1.5
M900 K45 ; Filament gcode LA 1.0
;BEFORE_LAYER_CHANGE
G92 E0.0
;0.2


G1 E-1.40000 F2100.00000
G1 Z0.200 F10800.000
;AFTER_LAYER_CHANGE
;0.2
G1 Z0.400
G1 X98.891 Y64.359
G1 Z0.200
G1 E1.40000 F2100.00000
M204 S1000
G1 F1200.000
G1 X99.850 Y63.631 E0.03776
G1 X100.746 Y63.247 E0.03056
G1 X101.890 Y63.065 E0.03631
G1 X148.004 Y63.063 E1.44588
G1 X148.737 Y63.126 E0.02308
G1 X149.521 Y63.339 E0.02546
G1 X150.450 Y63.815 E0.03274
G1 X151.074 Y64.324 E0.02522
G1 X151.559 Y64.892 E0.02344
G1 X151.963 Y65.587 E0.02519
G1 X152.289 Y66.582 E0.03284
G1 X152.375 Y67.330 E0.02360
G1 X152.377 Y142.575 E2.35927
G1 X152.205 Y143.768 E0.03778
G1 X151.841 Y144.655 E0.03007
G1 X151.106 Y145.643 E0.03861
G1 X150.141 Y146.374 E0.03796
G1 X149.243 Y146.756 E0.03060
G1 X148.080 Y146.936 E0.03690
G1 X101.973 Y146.937 E1.44564
G1 X100.786 Y146.763 E0.03762
G1 X99.902 Y146.400 E0.02996
G1 X98.913 Y145.663 E0.03868
G1 X98.183 Y144.697 E0.03797
G1 X97.802 Y143.796 E0.03068
G1 X97.624 Y142.621 E0.03725
G1 X97.623 Y67.425 E2.35772
G1 X97.795 Y66.232 E0.03779
G1 X98.157 Y65.350 E0.02988
G1 X98.855 Y64.408 E0.03678
G1 F8640.000
G1 X99.850 Y63.631 E-0.29139
G1 X100.746 Y63.247 E-0.22505
G1 X101.890 Y63.065 E-0.26741
G1 X104.255 Y63.065 E-0.54615
G1 E-0.07000 F2100.00000
G1 Z0.400 F10800.000
G1 X101.930 Y67.370
G1 Z0.200
G1 E1.40000 F2100.00000
G1 F1200.000
G1 X148.070 Y67.370 E1.44670
G1 X148.070 Y142.630 E2.35974
G1 X101.930 Y142.630 E1.44670
G1 X101.925 Y67.430 E2.35786
G1 X101.595 Y67.234 F10800.000
G1 F1200.000
G1 X101.679 Y67.119 E0.00445
G1 X101.794 Y67.035 E0.00445
G1 X101.929 Y66.992 E0.00445
G1 X102.061 Y66.981 E0.00414
G1 X147.940 Y66.981 E1.43853
G1 X148.071 Y66.992 E0.00411
G1 X148.206 Y67.036 E0.00446
G1 X148.367 Y67.173 E0.00664
G1 X148.432 Y67.300 E0.00446
G1 X148.459 Y67.500 E0.00635
G1 X148.459 Y142.500 E2.35154
G1 X148.448 Y142.631 E0.00414
G1 X148.404 Y142.766 E0.00446
G1 X148.267 Y142.927 E0.00665
G1 X148.140 Y142.992 E0.00446
G1 X147.940 Y143.019 E0.00635
G1 X102.061 Y143.019 E1.43850
G1 X101.929 Y143.008 E0.00414
G1 X101.794 Y142.965 E0.00445
G1 X101.633 Y142.827 E0.00665
G1 X101.568 Y142.700 E0.00445
G1 X101.541 Y142.499 E0.00635
G1 X101.541 Y67.501 E2.35154
G1 X101.573 Y67.289 E0.00670
G1 X101.208 Y67.183 F10800.000
G1 F1200.000
G1 X101.327 Y66.951 E0.00816
G1 X101.511 Y66.767 E0.00817
G1 X101.743 Y66.648 E0.00816
G1 X102.046 Y66.604 E0.00960
G1 X147.955 Y66.604 E1.43946
G1 X148.130 Y66.618 E0.00551
G1 X148.378 Y66.698 E0.00817
G1 X148.588 Y66.851 E0.00816
G1 X148.673 Y66.951 E0.00410
G1 X148.792 Y67.183 E0.00817
G1 X148.836 Y67.486 E0.00960
G1 X148.836 Y142.514 E2.35247
G1 X148.822 Y142.690 E0.00553
G1 X148.742 Y142.938 E0.00817
G1 X148.673 Y143.049 E0.00409
G1 X148.489 Y143.233 E0.00816
G1 X148.257 Y143.352 E0.00817
G1 X147.954 Y143.396 E0.00960
G1 X102.046 Y143.396 E1.43943
G1 X101.870 Y143.382 E0.00553
G1 X101.622 Y143.302 E0.00816
G1 X101.511 Y143.233 E0.00410
G1 X101.327 Y143.049 E0.00816
G1 X101.208 Y142.817 E0.00816
G1 X101.164 Y142.514 E0.00960
G1 X101.164 Y67.486 E2.35247
G1 X101.194 Y67.241 E0.00773
G1 X100.849 Y67.066 F10800.000
G1 F1200.000
G1 X100.921 Y66.890 E0.00596
G1 X101.021 Y66.728 E0.00595
G1 X101.144 Y66.584 E0.00596
G1 X101.288 Y66.461 E0.00596
G1 X101.450 Y66.361 E0.00595
G1 X101.626 Y66.289 E0.00596
G1 X101.811 Y66.244 E0.00596
G1 X102.031 Y66.227 E0.00693
G1 X147.970 Y66.227 E1.44039
G1 X148.189 Y66.244 E0.00690
G1 X148.374 Y66.289 E0.00595
G1 X148.550 Y66.361 E0.00596
G1 X148.711 Y66.461 E0.00595
G1 X148.856 Y66.584 E0.00595
G1 X148.979 Y66.728 E0.00596
G1 X149.079 Y66.890 E0.00596
G1 X149.151 Y67.066 E0.00596
G1 X149.196 Y67.251 E0.00595
G1 X149.213 Y67.471 E0.00693
G1 X149.213 Y142.529 E2.35340
M73 Q0 S152
M73 P0 R151
G1 X149.196 Y142.749 E0.00693
G1 X149.151 Y142.934 E0.00595
G1 X149.079 Y143.110 E0.00596
G1 X148.979 Y143.272 E0.00595
G1 X148.856 Y143.416 E0.00596
G1 X148.712 Y143.539 E0.00596
G1 X148.550 Y143.639 E0.00596
G1 X148.374 Y143.711 E0.00596
G1 X148.189 Y143.756 E0.00595
G1 X147.969 Y143.773 E0.00693
G1 X102.031 Y143.773 E1.44036
G1 X101.811 Y143.756 E0.00693
G1 X101.626 Y143.711 E0.00596
G1 X101.450 Y143.639 E0.00596
G1 X101.288 Y143.539 E0.00596
G1 X101.144 Y143.416 E0.00596
G1 X101.021 Y143.272 E0.00595
G1 X100.921 Y143.110 E0.00595
G1 X100.849 Y142.934 E0.00596
G1 X100.804 Y142.749 E0.00595
G1 X100.787 Y142.529 E0.00693
G1 X100.787 Y67.471 E2.35340
G1 X100.804 Y67.251 E0.00693
G1 X100.835 Y67.124 E0.00407
G1 X100.468 Y67.036 F10800.000
G1 F1200.000
G1 X100.584 Y66.719 E0.01060
G1 X100.715 Y66.506 E0.00782
G1 X100.877 Y66.317 E0.00782
G1 X101.066 Y66.155 E0.00782
G1 X101.279 Y66.024 E0.00782
G1 X101.509 Y65.929 E0.00782
G1 X101.751 Y65.871 E0.00782
G1 X102.016 Y65.850 E0.00832
G1 X147.985 Y65.850 E1.44132
G1 X148.249 Y65.871 E0.00830
G1 X148.491 Y65.929 E0.00782
G1 X148.721 Y66.024 E0.00782
G1 X148.934 Y66.155 E0.00782
G1 X149.123 Y66.317 E0.00782
G1 X149.285 Y66.506 E0.00782
G1 X149.416 Y66.719 E0.00782
G1 X149.511 Y66.949 E0.00782
G1 X149.569 Y67.191 E0.00782
G1 X149.590 Y67.456 E0.00832
G1 X149.590 Y142.544 E2.35433
G1 X149.569 Y142.809 E0.00832
G1 X149.511 Y143.051 E0.00781
G1 X149.416 Y143.281 E0.00782
G1 X149.285 Y143.494 E0.00782
G1 X149.123 Y143.683 E0.00782
G1 X148.934 Y143.845 E0.00782
G1 X148.721 Y143.976 E0.00782
G1 X148.491 Y144.071 E0.00782
G1 X148.249 Y144.129 E0.00781
G1 X147.984 Y144.150 E0.00832
G1 X102.016 Y144.150 E1.44129
G1 X101.751 Y144.129 E0.00832
G1 X101.509 Y144.071 E0.00782
G1 X101.279 Y143.976 E0.00782
G1 X101.066 Y143.845 E0.00782
G1 X100.877 Y143.683 E0.00782
G1 X100.715 Y143.494 E0.00782
G1 X100.584 Y143.281 E0.00782
G1 X100.489 Y143.051 E0.00782
G1 X100.431 Y142.809 E0.00782
G1 X100.410 Y142.544 E0.00832
G1 X100.410 Y67.456 E2.35433
G1 X100.454 Y67.095 E0.01142
G1 X100.792 Y66.940 F10800.000
G1 F8640.000
G1 X100.584 Y66.719 E-0.09186
G1 X100.715 Y66.506 E-0.05756
G1 X100.877 Y66.317 E-0.05757
G1 X101.066 Y66.155 E-0.05757
G1 X101.279 Y66.024 E-0.05756
G1 X101.509 Y65.929 E-0.05756
G1 X101.751 Y65.871 E-0.05756
G1 X102.016 Y65.850 E-0.06130
G1 X105.617 Y65.850 E-0.83146
G1 E-0.07000 F2100.00000
G1 Z0.400 F10800.000
G1 X102.809 Y142.517
G1 Z0.200
G1 E1.40000 F2100.00000
G1 F1200.000
G1 X102.213 Y141.921 E0.02654
G1 X102.213 Y141.386 E0.01687
G1 X103.174 Y142.347 E0.04284
G1 X103.710 Y142.347 E0.01687
G1 X102.213 Y140.850 E0.06669
G1 X102.213 Y140.314 E0.01687
G1 X104.246 Y142.347 E0.09054
G1 X104.781 Y142.347 E0.01687
G1 X102.213 Y139.779 E0.11440
G1 X102.213 Y139.243 E0.01687
G1 X105.317 Y142.347 E0.13825
G1 X105.852 Y142.347 E0.01687
G1 X102.213 Y138.708 E0.16211
G1 X102.213 Y138.172 E0.01687
G1 X106.388 Y142.347 E0.18596
G1 X106.924 Y142.347 E0.01687
G1 X102.213 Y137.636 E0.20981
G1 X102.213 Y137.101 E0.01687
G1 X107.459 Y142.347 E0.23367
G1 X107.995 Y142.347 E0.01687
G1 X102.213 Y136.565 E0.25752
G1 X102.213 Y136.030 E0.01687
G1 X108.530 Y142.347 E0.28137
G1 X109.066 Y142.347 E0.01687
G1 X102.213 Y135.494 E0.30523
G1 X102.213 Y134.958 E0.01687
G1 X109.602 Y142.347 E0.32908
G1 X110.137 Y142.347 E0.01687
G1 X102.213 Y134.423 E0.35293
G1 X102.213 Y133.887 E0.01687
G1 X110.673 Y142.347 E0.37679
G1 X111.209 Y142.347 E0.01687
G1 X102.213 Y133.351 E0.40064
G1 X102.213 Y132.816 E0.01687
G1 X111.744 Y142.347 E0.42449
G1 X112.280 Y142.347 E0.01687
G1 X102.213 Y132.280 E0.44835
G1 X102.213 Y131.745 E0.01687
G1 X112.815 Y142.347 E0.47220
G1 X113.351 Y142.347 E0.01687
G1 X102.213 Y131.209 E0.49606
G1 X102.213 Y130.673 E0.01687
G1 X113.887 Y142.347 E0.51991
G1 X114.422 Y142.347 E0.01687
G1 X102.213 Y130.138 E0.54376
G1 X102.213 Y129.602 E0.01687
G1 X114.958 Y142.347 E0.56762
G1 X115.493 Y142.347 E0.01687
G1 X102.213 Y129.067 E0.59147
G1 X102.213 Y128.531 E0.01687
G1 X116.029 Y142.347 E0.61532
G1 X116.565 Y142.347 E0.01687
G1 X102.213 Y127.995 E0.63918
G1 X102.213 Y127.460 E0.01687
G1 X117.100 Y142.347 E0.66303
G1 X117.636 Y142.347 E0.01687
G1 X102.213 Y126.924 E0.68688
G1 X102.213 Y126.389 E0.01687
G1 X118.171 Y142.347 E0.71074
G1 X118.707 Y142.347 E0.01687
G1 X102.213 Y125.853 E0.73459
G1 X102.213 Y125.317 E0.01687
G1 X119.243 Y142.347 E0.75844
G1 X119.778 Y142.347 E0.01687
G1 X102.213 Y124.782 E0.78230
G1 X102.213 Y124.246 E0.01687
G1 X120.314 Y142.347 E0.80615
G1 X120.849 Y142.347 E0.01687
G1 X102.213 Y123.711 E0.83001
G1 X102.213 Y123.175 E0.01687
G1 X121.385 Y142.347 E0.85386
G1 X121.921 Y142.347 E0.01687
G1 X102.213 Y122.639 E0.87771
G1 X102.213 Y122.104 E0.01687
G1 X122.456 Y142.347 E0.90157
G1 X122.992 Y142.347 E0.01687
G1 X102.213 Y121.568 E0.92542
G1 X102.213 Y121.033 E0.01687
G1 X123.527 Y142.347 E0.94927
G1 X124.063 Y142.347 E0.01687
G1 X102.213 Y120.497 E0.97313
G1 X102.213 Y119.961 E0.01687
G1 X124.599 Y142.347 E0.99698
G1 X125.134 Y142.347 E0.01687
G1 X102.213 Y119.426 E1.02083
G1 X102.213 Y118.890 E0.01687
G1 X125.670 Y142.347 E1.04469
G1 X126.205 Y142.347 E0.01687
G1 X102.213 Y118.355 E1.06854
M73 Q1 S151
M73 P1 R150
G1 X102.213 Y117.819 E0.01687
G1 X126.741 Y142.347 E1.09239
G1 X127.277 Y142.347 E0.01687
G1 X102.213 Y117.283 E1.11625
G1 X102.213 Y116.748 E0.01687
G1 X127.812 Y142.347 E1.14010
G1 X128.348 Y142.347 E0.01687
G1 X102.213 Y116.212 E1.16396
G1 X102.213 Y115.677 E0.01687
G1 X128.883 Y142.347 E1.18781
G1 X129.419 Y142.347 E0.01687
G1 X102.213 Y115.141 E1.21166
G1 X102.213 Y114.605 E0.01687
G1 X129.955 Y142.347 E1.23552
G1 X130.490 Y142.347 E0.01687
G1 X102.213 Y114.070 E1.25937
G1 X102.213 Y113.534 E0.01687
G1 X131.026 Y142.347 E1.28322
G1 X131.562 Y142.347 E0.01687
G1 X102.213 Y112.999 E1.30708
G1 X102.213 Y112.463 E0.01687
G1 X132.097 Y142.347 E1.33093
G1 X132.633 Y142.347 E0.01687
G1 X102.213 Y111.927 E1.35478
G1 X102.213 Y111.392 E0.01687
G1 X133.168 Y142.347 E1.37864
G1 X133.704 Y142.347 E0.01687
G1 X102.213 Y110.856 E1.40249
G1 X102.213 Y110.320 E0.01687
G1 X134.240 Y142.347 E1.42634
G1 X134.775 Y142.347 E0.01687
G1 X102.213 Y109.785 E1.45020
G1 X102.213 Y109.249 E0.01687
G1 X135.311 Y142.347 E1.47405
G1 X135.846 Y142.347 E0.01687
G1 X102.213 Y108.714 E1.49791
G1 X102.213 Y108.178 E0.01687
G1 X136.382 Y142.347 E1.52176
G1 X136.918 Y142.347 E0.01687
G1 X102.213 Y107.642 E1.54561
G1 X102.213 Y107.107 E0.01687
G1 X137.453 Y142.347 E1.56947
G1 X137.989 Y142.347 E0.01687
G1 X102.213 Y106.571 E1.59332
G1 X102.213 Y106.036 E0.01687
G1 X138.524 Y142.347 E1.61717
G1 X139.060 Y142.347 E0.01687
G1 X102.213 Y105.500 E1.64103
G1 X102.213 Y104.964 E0.01687
G1 X139.596 Y142.347 E1.66488
G1 X140.131 Y142.347 E0.01687
G1 X102.213 Y104.429 E1.68873
G1 X102.213 Y103.893 E0.01687
G1 X140.667 Y142.347 E1.71259
M73 Q2 S150
M73 P2 R149
G1 X141.202 Y142.347 E0.01687
G1 X102.213 Y103.358 E1.73644
G1 X102.213 Y102.822 E0.01687
G1 X141.738 Y142.347 E1.76029
G1 X142.274 Y142.347 E0.01687
G1 X102.213 Y102.286 E1.78415
G1 X102.213 Y101.751 E0.01687
G1 X142.809 Y142.347 E1.80800
G1 X143.345 Y142.347 E0.01687
G1 X102.213 Y101.215 E1.83186
G1 X102.213 Y100.680 E0.01687
G1 X143.880 Y142.347 E1.85571
G1 X144.416 Y142.347 E0.01687
G1 X102.213 Y100.144 E1.87956
G1 X102.213 Y99.608 E0.01687
G1 X144.952 Y142.347 E1.90342
G1 X145.487 Y142.347 E0.01687
G1 X102.213 Y99.073 E1.92727
G1 X102.213 Y98.537 E0.01687
G1 X146.023 Y142.347 E1.95112
G1 X146.558 Y142.347 E0.01687
G1 X102.213 Y98.002 E1.97498
G1 X102.213 Y97.466 E0.01687
G1 X147.094 Y142.347 E1.99883
G1 X147.630 Y142.347 E0.01687
G1 X102.213 Y96.930 E2.02268
G1 X102.213 Y96.395 E0.01687
G1 X147.788 Y141.970 E2.02972
G1 X147.788 Y141.434 E0.01686
G1 X102.213 Y95.859 E2.02972
G1 X102.213 Y95.324 E0.01687
G1 X147.788 Y140.899 E2.02972
G1 X147.788 Y140.363 E0.01686
G1 X102.213 Y94.788 E2.02973
G1 X102.213 Y94.252 E0.01687
G1 X147.788 Y139.828 E2.02973
G1 X147.788 Y139.292 E0.01686
G1 X102.213 Y93.717 E2.02973
G1 X102.213 Y93.181 E0.01687
G1 X147.788 Y138.757 E2.02974
M73 Q2 S149
M73 P2 R148
G1 X147.788 Y138.221 E0.01686
G1 X102.213 Y92.646 E2.02974
G1 X102.213 Y92.110 E0.01687
G1 X147.788 Y137.686 E2.02974
G1 X147.788 Y137.150 E0.01686
G1 X102.213 Y91.574 E2.02975
G1 X102.213 Y91.039 E0.01687
G1 X147.788 Y136.614 E2.02975
G1 X147.788 Y136.079 E0.01686
G1 X102.213 Y90.503 E2.02976
G1 X102.213 Y89.967 E0.01687
G1 X147.789 Y135.543 E2.02976
G1 X147.789 Y135.008 E0.01686
G1 X102.213 Y89.432 E2.02976
G1 X102.213 Y88.896 E0.01687
G1 X147.789 Y134.472 E2.02977
G1 X147.789 Y133.937 E0.01686
G1 X102.213 Y88.361 E2.02977
G1 X102.213 Y87.825 E0.01687
G1 X147.789 Y133.401 E2.02977
G1 X147.789 Y132.866 E0.01686
G1 X102.213 Y87.289 E2.02978
G1 X102.213 Y86.754 E0.01687
G1 X147.789 Y132.330 E2.02978
G1 X147.789 Y131.795 E0.01686
G1 X102.213 Y86.218 E2.02978
G1 X102.213 Y85.683 E0.01687
G1 X147.789 Y131.259 E2.02979
G1 X147.789 Y130.724 E0.01686
G1 X102.213 Y85.147 E2.02979
G1 X102.213 Y84.611 E0.01687
G1 X147.789 Y130.188 E2.02980
G1 X147.789 Y129.653 E0.01686
G1 X102.213 Y84.076 E2.02980
G1 X102.213 Y83.540 E0.01687
G1 X147.790 Y129.117 E2.02980
G1 X147.790 Y128.582 E0.01686
G1 X102.213 Y83.005 E2.02981
M73 Q3 S148
M73 P3 R147
G1 X102.213 Y82.469 E0.01687
G1 X147.790 Y128.046 E2.02981
G1 X147.790 Y127.511 E0.01686
G1 X102.213 Y81.933 E2.02981
G1 X102.213 Y81.398 E0.01687
G1 X147.790 Y126.975 E2.02982
G1 X147.790 Y126.440 E0.01686
G1 X102.213 Y80.862 E2.02982
G1 X102.213 Y80.327 E0.01687
G1 X147.790 Y125.904 E2.02982
G1 X147.790 Y125.368 E0.01686
G1 X102.213 Y79.791 E2.02983
G1 X102.213 Y79.255 E0.01687
G1 X147.790 Y124.833 E2.02983
G1 X147.790 Y124.297 E0.01686
G1 X102.213 Y78.720 E2.02984
G1 X102.213 Y78.184 E0.01687
G1 X147.790 Y123.762 E2.02984
G1 X147.790 Y123.226 E0.01686
G1 X102.213 Y77.649 E2.02984
G1 X102.213 Y77.113 E0.01687
G1 X147.790 Y122.691 E2.02985
G1 X147.791 Y122.155 E0.01686
G1 X102.213 Y76.577 E2.02985
G1 X102.213 Y76.042 E0.01687
G1 X147.791 Y121.620 E2.02985
G1 X147.791 Y121.084 E0.01686
G1 X102.213 Y75.506 E2.02986
G1 X102.213 Y74.971 E0.01687
G1 X147.791 Y120.549 E2.02986
G1 X147.791 Y120.013 E0.01686
G1 X102.213 Y74.435 E2.02986
G1 X102.213 Y73.899 E0.01687
G1 X147.791 Y119.478 E2.02987
G1 X147.791 Y118.942 E0.01686
G1 X102.213 Y73.364 E2.02987
G1 X102.213 Y72.828 E0.01687
G1 X147.791 Y118.407 E2.02988
M73 Q4 S147
M73 P4 R146
G1 X147.791 Y117.871 E0.01686
G1 X102.213 Y72.293 E2.02988
G1 X102.213 Y71.757 E0.01687
G1 X147.791 Y117.336 E2.02988
G1 X147.791 Y116.800 E0.01686
G1 X102.213 Y71.221 E2.02989
G1 X102.213 Y70.686 E0.01687
G1 X147.791 Y116.265 E2.02989
G1 X147.792 Y115.729 E0.01686
G1 X102.213 Y70.150 E2.02989
G1 X102.213 Y69.614 E0.01687
G1 X147.792 Y115.194 E2.02990
G1 X147.792 Y114.658 E0.01686
G1 X102.213 Y69.079 E2.02990
G1 X102.213 Y68.543 E0.01687
G1 X147.792 Y114.123 E2.02990
G1 X147.792 Y113.587 E0.01686
G1 X102.213 Y68.008 E2.02991
G1 X102.213 Y67.652 E0.01119
