; generated by PrusaSlicer 2.2.0+linux-x64 on 2020-09-16 at 13:33:57 UTC

; 

; external perimeters extrusion width = 0.60mm
; perimeters extrusion width = 0.50mm
; infill extrusion width = 0.50mm
; solid infill extrusion width = 0.50mm
; top infill extrusion width = 0.45mm
; first layer extrusion width = 0.42mm

M73 P0 R151
M73 Q0 S152
M201 X1000 Y1000 Z200 E5000 ; sets maximum accelerations, mm/sec^2
M203 X200 Y200 Z12 E120 ; sets maximum feedrates, mm/sec
M204 P1250 R1250 T1250 ; sets acceleration (P, T) and retract acceleration (R), mm/sec^2
M205 X8.00 Y8.00 Z0.40 E4.50 ; sets the jerk limits, mm/sec
M205 S0 T0 ; sets the minimum extruding and travel feed rate, mm/sec
M107
M862.3 P "MK3S" ; printer model check
M862.1 P0.4 ; nozzle diameter check
M115 U3.9.0 ; tell printer latest fw version
G90 ; use absolute coordinates
M83 ; extruder relative mode
M104 S245 ; set extruder temp
M140 S85 ; set bed temp
M190 S85 ; wait for bed temp
M109 S245 ; wait for extruder temp
G28 W ; home all without mesh bed level
G80 ; mesh bed leveling
G1 Y-3.0 F1000.0 ; go outside print area
G92 E0.0
G1 X60.0 E9.0 F1000.0 ; intro line
M73 Q0 S152
M73 P0 R151
G1 X100.0 E12.5 F1000.0 ; intro line
G92 E0.0
M221 S95

; Don't change E values below. Excessive value can damage the printer.

G21 ; set units to millimeters
G90 ; use absolute coordinates
M83 ; use relative distances for extrusion
M900 K0.12 ; Filament gcode LA 1.5
M900 K45 ; Filament gcode LA 1.0
;BEFORE_LAYER_CHANGE
G92 E0.0
;0.2


G1 E-1.40000 F2100.00000
G1 Z0.200 F10800.000
;AFTER_LAYER_CHANGE
;0.2
G1 Z0.400
G1 X98.545 Y76.716
G1 Z0.200
G1 E1.40000 F2100.00000
M204 S1000
G1 F1200.000
G1 X99.312 Y75.948 E0.03403
G1 X100.026 Y75.493 E0.02656
G1 X100.809 Y75.191 E0.02629
G1 X101.920 Y75.024 E0.03524
G1 X148.004 Y75.023 E1.44492
G1 X148.737 Y75.086 E0.02308
G1 X149.521 Y75.299 E0.02546
G1 X150.447 Y75.773 E0.03262
G1 X151.068 Y76.278 E0.02510
G1 X151.557 Y76.849 E0.02356
G1 X151.960 Y77.540 E0.02507
G1 X152.286 Y78.531 E0.03272
G1 X152.373 Y79.259 E0.02300
G1 X152.377 Y130.642 E1.61107
G1 X152.319 Y131.308 E0.02097
G1 X152.148 Y131.997 E0.02226
G1 X151.875 Y132.634 E0.02172
G1 X151.454 Y133.285 E0.02431
G1 X150.688 Y134.052 E0.03399
G1 X149.961 Y134.513 E0.02698
G1 X149.173 Y134.813 E0.02643
G1 X148.035 Y134.977 E0.03606
G1 X101.954 Y134.977 E1.44482
G1 X101.289 Y134.919 E0.02093
G1 X100.597 Y134.746 E0.02238
G1 X99.962 Y134.473 E0.02164
G1 X99.313 Y134.052 E0.02427
G1 X98.545 Y133.285 E0.03404
G1 X98.088 Y132.563 E0.02677
G1 X97.787 Y131.776 E0.02641
G1 X97.624 Y130.642 E0.03594
G1 X97.623 Y79.358 E1.60796
G1 X97.681 Y78.689 E0.02106
G1 X97.854 Y77.999 E0.02229
G1 X98.122 Y77.372 E0.02141
G1 X98.513 Y76.767 E0.02258
G1 F8640.000
G1 X99.312 Y75.948 E-0.26414
G1 X100.026 Y75.493 E-0.19559
G1 X100.809 Y75.191 E-0.19361
G1 X101.920 Y75.024 E-0.25953
G1 X103.727 Y75.024 E-0.41713
G1 E-0.07000 F2100.00000
G1 Z0.400 F10800.000
G1 X101.930 Y79.330
G1 Z0.200
G1 E1.40000 F2100.00000
G1 F1200.000
G1 X148.070 Y79.330 E1.44670
G1 X148.070 Y130.670 E1.60974
G1 X101.930 Y130.670 E1.44670
G1 X101.925 Y79.390 E1.60787
G1 X101.595 Y79.194 F10800.000
G1 F1200.000
G1 X101.679 Y79.079 E0.00445
G1 X101.794 Y78.995 E0.00445
G1 X101.929 Y78.952 E0.00445
G1 X102.061 Y78.941 E0.00414
G1 X147.940 Y78.941 E1.43853
G1 X148.140 Y78.968 E0.00633
G1 X148.321 Y79.079 E0.00664
G1 X148.432 Y79.260 E0.00665
G1 X148.459 Y79.460 E0.00635
G1 X148.459 Y130.540 E1.60155
G1 X148.432 Y130.740 E0.00635
G1 X148.321 Y130.921 E0.00665
G1 X148.140 Y131.032 E0.00665
G1 X147.940 Y131.059 E0.00635
G1 X102.061 Y131.059 E1.43850
G1 X101.860 Y131.032 E0.00636
G1 X101.679 Y130.921 E0.00665
G1 X101.568 Y130.740 E0.00664
G1 X101.541 Y130.539 E0.00635
G1 X101.541 Y79.461 E1.60154
G1 X101.573 Y79.249 E0.00669
G1 X101.208 Y79.143 F10800.000
G1 F1200.000
G1 X101.327 Y78.911 E0.00816
G1 X101.511 Y78.727 E0.00817
G1 X101.743 Y78.608 E0.00816
G1 X102.046 Y78.564 E0.00960
G1 X147.955 Y78.564 E1.43946
G1 X148.257 Y78.608 E0.00957
G1 X148.378 Y78.658 E0.00410
G1 X148.588 Y78.811 E0.00816
G1 X148.742 Y79.022 E0.00817
G1 X148.792 Y79.143 E0.00410
G1 X148.836 Y79.446 E0.00960
G1 X148.836 Y130.554 E1.60247
G1 X148.792 Y130.857 E0.00959
G1 X148.742 Y130.978 E0.00410
G1 X148.588 Y131.188 E0.00816
G1 X148.378 Y131.342 E0.00816
G1 X148.257 Y131.392 E0.00410
G1 X147.954 Y131.436 E0.00959
G1 X102.046 Y131.436 E1.43943
G1 X101.743 Y131.392 E0.00960
G1 X101.622 Y131.342 E0.00410
G1 X101.411 Y131.188 E0.00817
G1 X101.258 Y130.978 E0.00816
G1 X101.208 Y130.857 E0.00410
G1 X101.164 Y130.554 E0.00960
G1 X101.164 Y79.446 E1.60247
G1 X101.194 Y79.201 E0.00773
G1 X100.849 Y79.026 F10800.000
G1 F1200.000
G1 X100.921 Y78.850 E0.00596
G1 X101.021 Y78.688 E0.00595
G1 X101.144 Y78.544 E0.00596
G1 X101.288 Y78.421 E0.00596
G1 X101.450 Y78.321 E0.00595
G1 X101.626 Y78.249 E0.00596
G1 X101.811 Y78.204 E0.00596
G1 X102.031 Y78.187 E0.00693
G1 X147.970 Y78.187 E1.44039
G1 X148.189 Y78.204 E0.00690
G1 X148.374 Y78.249 E0.00595
G1 X148.550 Y78.321 E0.00596
G1 X148.711 Y78.421 E0.00595
G1 X148.856 Y78.544 E0.00595
G1 X148.979 Y78.688 E0.00596
G1 X149.079 Y78.850 E0.00596
G1 X149.151 Y79.026 E0.00596
G1 X149.196 Y79.211 E0.00595
G1 X149.213 Y79.431 E0.00693
G1 X149.213 Y130.569 E1.60340
G1 X149.196 Y130.789 E0.00693
G1 X149.151 Y130.974 E0.00595
G1 X149.079 Y131.150 E0.00596
G1 X148.979 Y131.312 E0.00595
G1 X148.856 Y131.456 E0.00596
G1 X148.712 Y131.579 E0.00596
G1 X148.550 Y131.679 E0.00595
G1 X148.374 Y131.751 E0.00596
G1 X148.189 Y131.796 E0.00595
G1 X147.969 Y131.813 E0.00693
G1 X102.031 Y131.813 E1.44036
G1 X101.810 Y131.796 E0.00694
G1 X101.626 Y131.751 E0.00594
G1 X101.450 Y131.679 E0.00596
G1 X101.288 Y131.579 E0.00596
G1 X101.144 Y131.456 E0.00596
G1 X101.021 Y131.311 E0.00595
G1 X100.921 Y131.150 E0.00595
G1 X100.849 Y130.974 E0.00596
G1 X100.804 Y130.789 E0.00595
G1 X100.787 Y130.569 E0.00693
G1 X100.787 Y79.431 E1.60340
G1 X100.804 Y79.211 E0.00693
G1 X100.835 Y79.084 E0.00407
G1 X100.468 Y78.996 F10800.000
G1 F1200.000
G1 X100.584 Y78.679 E0.01060
G1 X100.715 Y78.466 E0.00782
G1 X100.877 Y78.277 E0.00782
G1 X101.066 Y78.115 E0.00782
G1 X101.279 Y77.984 E0.00782
G1 X101.509 Y77.889 E0.00782
G1 X101.751 Y77.831 E0.00782
G1 X102.016 Y77.810 E0.00832
G1 X147.985 Y77.810 E1.44132
G1 X148.249 Y77.831 E0.00830
G1 X148.491 Y77.889 E0.00782
G1 X148.721 Y77.984 E0.00782
G1 X148.934 Y78.115 E0.00782
G1 X149.123 Y78.277 E0.00782
G1 X149.285 Y78.466 E0.00782
G1 X149.416 Y78.679 E0.00782
G1 X149.511 Y78.909 E0.00782
G1 X149.569 Y79.151 E0.00782
G1 X149.590 Y79.416 E0.00832
G1 X149.590 Y130.584 E1.60433
M73 Q0 S151
G1 X149.569 Y130.849 E0.00832
G1 X149.511 Y131.091 E0.00781
G1 X149.416 Y131.321 E0.00782
G1 X149.285 Y131.534 E0.00782
G1 X149.123 Y131.723 E0.00782
G1 X148.934 Y131.885 E0.00782
G1 X148.721 Y132.016 E0.00782
G1 X148.491 Y132.111 E0.00782
G1 X148.249 Y132.169 E0.00781
G1 X147.984 Y132.190 E0.00832
G1 X102.016 Y132.190 E1.44129
M73 P0 R150
G1 X101.751 Y132.169 E0.00834
G1 X101.509 Y132.111 E0.00780
G1 X101.279 Y132.016 E0.00782
G1 X101.066 Y131.885 E0.00782
G1 X100.877 Y131.723 E0.00782
G1 X100.715 Y131.534 E0.00782
G1 X100.584 Y131.321 E0.00782
G1 X100.489 Y131.091 E0.00782
G1 X100.431 Y130.849 E0.00782
G1 X100.410 Y130.584 E0.00832
G1 X100.410 Y79.416 E1.60433
G1 X100.454 Y79.055 E0.01142
G1 X100.792 Y78.900 F10800.000
G1 F8640.000
G1 X100.584 Y78.679 E-0.09186
G1 X100.715 Y78.466 E-0.05756
G1 X100.877 Y78.277 E-0.05757
G1 X101.066 Y78.115 E-0.05757
G1 X101.279 Y77.984 E-0.05756
G1 X101.509 Y77.889 E-0.05756
G1 X101.751 Y77.831 E-0.05756
G1 X102.016 Y77.810 E-0.06130
G1 X105.617 Y77.810 E-0.83146
G1 E-0.07000 F2100.00000
G1 Z0.400 F10800.000
G1 X102.806 Y130.557
G1 Z0.200
G1 E1.40000 F2100.00000
G1 F1200.000
G1 X102.213 Y129.964 E0.02633
G1 X102.213 Y129.430 E0.01674
G1 X103.170 Y130.387 E0.04248
G1 X103.703 Y130.387 E0.01674
G1 X102.213 Y128.896 E0.06616
G1 X102.213 Y128.363 E0.01674
G1 X104.237 Y130.387 E0.08984
G1 X104.771 Y130.387 E0.01674
G1 X102.213 Y127.829 E0.11352
G1 X102.213 Y127.296 E0.01674
G1 X105.304 Y130.387 E0.13720
G1 X105.838 Y130.387 E0.01674
G1 X102.213 Y126.762 E0.16088
G1 X102.213 Y126.228 E0.01674
G1 X106.372 Y130.387 E0.18456
G1 X106.905 Y130.387 E0.01674
G1 X102.213 Y125.695 E0.20824
G1 X102.213 Y125.161 E0.01674
G1 X107.439 Y130.387 E0.23192
G1 X107.973 Y130.387 E0.01674
G1 X102.213 Y124.627 E0.25560
G1 X102.213 Y124.094 E0.01674
G1 X108.506 Y130.387 E0.27928
G1 X109.040 Y130.387 E0.01674
G1 X102.213 Y123.560 E0.30297
G1 X102.213 Y123.026 E0.01674
G1 X109.574 Y130.387 E0.32665
G1 X110.107 Y130.387 E0.01674
G1 X102.213 Y122.493 E0.35033
G1 X102.213 Y121.959 E0.01674
G1 X110.641 Y130.387 E0.37401
G1 X111.175 Y130.387 E0.01674
G1 X102.213 Y121.425 E0.39769
G1 X102.213 Y120.892 E0.01674
G1 X111.708 Y130.387 E0.42137
G1 X112.242 Y130.387 E0.01674
G1 X102.213 Y120.358 E0.44505
G1 X102.213 Y119.824 E0.01674
G1 X112.776 Y130.387 E0.46873
G1 X113.309 Y130.387 E0.01674
G1 X102.213 Y119.291 E0.49241
G1 X102.213 Y118.757 E0.01674
G1 X113.843 Y130.387 E0.51609
G1 X114.377 Y130.387 E0.01674
G1 X102.213 Y118.223 E0.53977
G1 X102.213 Y117.690 E0.01674
G1 X114.910 Y130.387 E0.56345
G1 X115.444 Y130.387 E0.01674
G1 X102.213 Y117.156 E0.58714
G1 X102.213 Y116.622 E0.01674
G1 X115.978 Y130.387 E0.61082
G1 X116.511 Y130.387 E0.01674
G1 X102.213 Y116.089 E0.63450
G1 X102.213 Y115.555 E0.01674
G1 X117.045 Y130.387 E0.65818
G1 X117.579 Y130.387 E0.01674
G1 X102.213 Y115.021 E0.68186
G1 X102.213 Y114.488 E0.01674
G1 X118.112 Y130.387 E0.70554
G1 X118.646 Y130.387 E0.01674
G1 X102.213 Y113.954 E0.72922
G1 X102.213 Y113.420 E0.01674
G1 X119.180 Y130.387 E0.75290
G1 X119.713 Y130.387 E0.01674
G1 X102.213 Y112.887 E0.77658
G1 X102.213 Y112.353 E0.01674
G1 X120.247 Y130.387 E0.80026
G1 X120.781 Y130.387 E0.01674
G1 X102.213 Y111.819 E0.82394
G1 X102.213 Y111.286 E0.01674
G1 X121.314 Y130.387 E0.84762
G1 X121.848 Y130.387 E0.01674
G1 X102.213 Y110.752 E0.87131
G1 X102.213 Y110.218 E0.01674
G1 X122.382 Y130.387 E0.89499
G1 X122.915 Y130.387 E0.01674
G1 X102.213 Y109.685 E0.91867
G1 X102.213 Y109.151 E0.01674
G1 X123.449 Y130.387 E0.94235
G1 X123.983 Y130.387 E0.01674
G1 X102.213 Y108.617 E0.96603
G1 X102.213 Y108.084 E0.01674
G1 X124.516 Y130.387 E0.98971
G1 X125.050 Y130.387 E0.01674
G1 X102.213 Y107.550 E1.01339
G1 X102.213 Y107.016 E0.01674
G1 X125.584 Y130.387 E1.03707
G1 X126.117 Y130.387 E0.01674
G1 X102.213 Y106.483 E1.06075
G1 X102.213 Y105.949 E0.01674
G1 X126.651 Y130.387 E1.08443
G1 X127.185 Y130.387 E0.01674
G1 X102.213 Y105.415 E1.10811
G1 X102.213 Y104.882 E0.01674
G1 X127.718 Y130.387 E1.13179
G1 X128.252 Y130.387 E0.01674
G1 X102.213 Y104.348 E1.15548
G1 X102.213 Y103.814 E0.01674
G1 X128.786 Y130.387 E1.17916
G1 X129.319 Y130.387 E0.01674
G1 X102.213 Y103.281 E1.20284
G1 X102.213 Y102.747 E0.01674
G1 X129.853 Y130.387 E1.22652
G1 X130.387 Y130.387 E0.01674
G1 X102.213 Y102.213 E1.25020
M73 Q1 S150
G1 X102.213 Y101.680 E0.01674
G1 X130.920 Y130.387 E1.27388
M73 P1 R149
G1 X131.454 Y130.387 E0.01674
G1 X102.213 Y101.146 E1.29756
G1 X102.213 Y100.612 E0.01674
G1 X131.988 Y130.387 E1.32124
G1 X132.521 Y130.387 E0.01674
G1 X102.213 Y100.079 E1.34492
G1 X102.213 Y99.545 E0.01674
G1 X133.055 Y130.387 E1.36860
G1 X133.589 Y130.387 E0.01674
G1 X102.213 Y99.011 E1.39228
G1 X102.213 Y98.478 E0.01674
G1 X134.122 Y130.387 E1.41596
G1 X134.656 Y130.387 E0.01674
G1 X102.213 Y97.944 E1.43965
G1 X102.213 Y97.410 E0.01674
G1 X135.190 Y130.387 E1.46333
G1 X135.723 Y130.387 E0.01674
G1 X102.213 Y96.877 E1.48701
G1 X102.213 Y96.343 E0.01674
G1 X136.257 Y130.387 E1.51069
G1 X136.791 Y130.387 E0.01674
G1 X102.213 Y95.809 E1.53437
G1 X102.213 Y95.276 E0.01674
G1 X137.324 Y130.387 E1.55805
G1 X137.858 Y130.387 E0.01674
G1 X102.213 Y94.742 E1.58173
G1 X102.213 Y94.208 E0.01674
G1 X138.392 Y130.387 E1.60541
G1 X138.925 Y130.387 E0.01674
G1 X102.213 Y93.675 E1.62909
G1 X102.213 Y93.141 E0.01674
G1 X139.459 Y130.387 E1.65277
G1 X139.993 Y130.387 E0.01674
G1 X102.213 Y92.607 E1.67645
G1 X102.213 Y92.074 E0.01674
G1 X140.526 Y130.387 E1.70013
G1 X141.060 Y130.387 E0.01674
G1 X102.213 Y91.540 E1.72382
G1 X102.213 Y91.006 E0.01674
G1 X141.594 Y130.387 E1.74750
G1 X142.127 Y130.387 E0.01674
G1 X102.213 Y90.473 E1.77118
G1 X102.213 Y89.939 E0.01674
G1 X142.661 Y130.387 E1.79486
G1 X143.194 Y130.387 E0.01674
G1 X102.213 Y89.406 E1.81854
M73 Q2 S149
G1 X102.213 Y88.872 E0.01674
G1 X143.728 Y130.387 E1.84222
M73 P2 R148
G1 X144.262 Y130.387 E0.01674
G1 X102.213 Y88.338 E1.86590
G1 X102.213 Y87.805 E0.01674
G1 X144.795 Y130.387 E1.88958
G1 X145.329 Y130.387 E0.01674
G1 X102.213 Y87.271 E1.91326
G1 X102.213 Y86.737 E0.01674
G1 X145.863 Y130.387 E1.93694
G1 X146.396 Y130.387 E0.01674
G1 X102.213 Y86.204 E1.96062
G1 X102.213 Y85.670 E0.01674
G1 X146.930 Y130.387 E1.98430
G1 X147.464 Y130.387 E0.01674
G1 X102.213 Y85.136 E2.00799
G1 X102.213 Y84.603 E0.01674
G1 X147.788 Y130.178 E2.02235
G1 X147.788 Y129.644 E0.01674
G1 X102.213 Y84.069 E2.02236
G1 X102.213 Y83.535 E0.01674
G1 X147.788 Y129.110 E2.02236
G1 X147.788 Y128.577 E0.01674
G1 X102.213 Y83.002 E2.02237
G1 X102.213 Y82.468 E0.01674
G1 X147.788 Y128.043 E2.02237
G1 X147.788 Y127.510 E0.01674
G1 X102.213 Y81.934 E2.02238
G1 X102.213 Y81.401 E0.01674
G1 X147.788 Y126.976 E2.02238
G1 X147.788 Y126.443 E0.01674
G1 X102.213 Y80.867 E2.02239
G1 X102.213 Y80.333 E0.01674
G1 X147.789 Y125.909 E2.02239
G1 X147.789 Y125.376 E0.01674
G1 X102.213 Y79.800 E2.02240
G1 X102.213 Y79.612 E0.00587
G1 X102.559 Y79.612 E0.01087
G1 X147.789 Y124.842 E2.00703
M73 Q2 S148
G1 X147.789 Y124.309 E0.01674
G1 X103.093 Y79.612 E1.98336
M73 P2 R147
G1 X103.626 Y79.612 E0.01674
G1 X147.789 Y123.775 E1.95969
G1 X147.789 Y123.241 E0.01674
G1 X104.160 Y79.612 E1.93602
G1 X104.693 Y79.612 E0.01674
G1 X147.789 Y122.708 E1.91235
G1 X147.789 Y122.174 E0.01674
G1 X105.227 Y79.612 E1.88868
G1 X105.760 Y79.612 E0.01674
G1 X147.789 Y121.641 E1.86501
G1 X147.790 Y121.107 E0.01674
G1 X106.294 Y79.611 E1.84134
G1 X106.827 Y79.611 E0.01674
G1 X147.790 Y120.574 E1.81767
G1 X147.790 Y120.040 E0.01674
G1 X107.361 Y79.611 E1.79400
G1 X107.894 Y79.611 E0.01674
G1 X147.790 Y119.507 E1.77033
G1 X147.790 Y118.973 E0.01674
G1 X108.428 Y79.611 E1.74666
G1 X108.961 Y79.611 E0.01674
G1 X147.790 Y118.440 E1.72299
G1 X147.790 Y117.906 E0.01674
G1 X109.495 Y79.611 E1.69933
G1 X110.028 Y79.611 E0.01674
G1 X147.790 Y117.373 E1.67566
G1 X147.791 Y116.839 E0.01674
G1 X110.562 Y79.610 E1.65199
G1 X111.096 Y79.610 E0.01674
G1 X147.791 Y116.305 E1.62832
G1 X147.791 Y115.772 E0.01674
G1 X111.629 Y79.610 E1.60465
G1 X112.163 Y79.610 E0.01674
G1 X147.791 Y115.238 E1.58098
G1 X147.791 Y114.705 E0.01674
G1 X112.696 Y79.610 E1.55731
G1 X113.230 Y79.610 E0.01674
G1 X147.791 Y114.171 E1.53364
G1 X147.791 Y113.638 E0.01674
G1 X113.763 Y79.610 E1.50997
G1 X114.297 Y79.610 E0.01674
G1 X147.791 Y113.104 E1.48630
M73 Q3 S147
G1 X147.791 Y112.571 E0.01674
G1 X114.830 Y79.609 E1.46263
M73 P3 R146
G1 X115.364 Y79.609 E0.01674
G1 X147.792 Y112.037 E1.43896
G1 X147.792 Y111.504 E0.01674
G1 X115.897 Y79.609 E1.41529
G1 X116.431 Y79.609 E0.01674
G1 X147.792 Y110.970 E1.39162
G1 X147.792 Y110.436 E0.01674
G1 X116.964 Y79.609 E1.36795
G1 X117.498 Y79.609 E0.01674
G1 X147.792 Y109.903 E1.34428
G1 X147.792 Y109.369 E0.01674
G1 X118.031 Y79.609 E1.32061
G1 X118.565 Y79.608 E0.01674
G1 X147.792 Y108.836 E1.29694
G1 X147.792 Y108.302 E0.01674
G1 X119.098 Y79.608 E1.27327
G1 X119.632 Y79.608 E0.01674
G1 X147.793 Y107.769 E1.24960
G1 X147.793 Y107.235 E0.01674
G1 X120.166 Y79.608 E1.22593
G1 X120.699 Y79.608 E0.01674
G1 X147.793 Y106.702 E1.20226
G1 X147.793 Y106.168 E0.01674
G1 X121.233 Y79.608 E1.17859
G1 X121.766 Y79.608 E0.01674
G1 X147.793 Y105.635 E1.15492
G1 X147.793 Y105.101 E0.01674
G1 X122.300 Y79.608 E1.13125
G1 X122.833 Y79.607 E0.01674
G1 X147.793 Y104.567 E1.10758
G1 X147.793 Y104.034 E0.01674
G1 X123.367 Y79.607 E1.08391
G1 X123.900 Y79.607 E0.01674
G1 X147.794 Y103.500 E1.06024
G1 X147.794 Y102.967 E0.01674
G1 X124.434 Y79.607 E1.03657
G1 X124.967 Y79.607 E0.01674
G1 X147.794 Y102.433 E1.01290
